resources/svg/cube.svg

<svg viewBox="0 0 24 24"><path fill="none" stroke="currentColor" stroke-width="2" d="M12 2l10 5v10l-10 5l-10-5V7l10-5zM2 7l10 5l10-5m-10 5v10v-10z"/></svg>

<svg xmlns="http://www.w3.org/2000/svg" viewBox="0 0 24 24" fill="currentColor"><path fill="none" stroke="currentColor" stroke-width="2" d="M12,2 L22,7 L22,17 L12,22 L2,17 L2,7 L12,2 Z M2,7 L12,12 L22,7 M12,12 L12,21.9999998 L12,12 Z"/></svg>
